synths/sSOL.svg

<svg width="42" height="42" viewBox="0 0 42 42" fill="none" xmlns="http://www.w3.org/2000/svg">
<g clip-path="url(#clip0_7277_57892)">
<mask id="mask0_7277_57892" style="mask-type:alpha" maskUnits="userSpaceOnUse" x="0" y="0" width="42" height="42">
<circle cx="21" cy="21" r="21" transform="matrix(-1 0 0 1 42 0)" fill="url(#paint0_linear_7277_57892)"/>
</mask>
<g mask="url(#mask0_7277_57892)">
<circle cx="21" cy="21" r="21" transform="matrix(-1 0 0 1 42 0)" fill="#34EDB3"/>
<circle cx="18.2" cy="18.2" r="18.2" transform="matrix(-1 0 0 1 39.2 2.80005)" fill="white"/>
</g>
<circle cx="16.1" cy="16.1" r="16.1" transform="matrix(-1 0 0 1 37.1 4.90002)" fill="#0B0B22"/>
<g clip-path="url(#clip1_7277_57892)">
<circle cx="21" cy="21" r="16.1" fill="url(#paint1_linear_7277_57892)"/>
<path fill-rule="evenodd" clip-rule="evenodd" d="M21 4.90002C29.8923 4.90002 37.1 12.1078 37.1 21C37.1 29.8923 29.8923 37.1 21 37.1C12.1078 37.1 4.90002 29.8923 4.90002 21C4.90002 12.1078 12.1078 4.90002 21 4.90002ZM29.7604 24.539H15.3046C15.1484 24.5388 14.9983 24.6003 14.8871 24.7101L12.0313 27.5427C11.9899 27.5836 11.9616 27.636 11.9501 27.6931C11.9386 27.7503 11.9444 27.8095 11.9667 27.8634C11.9891 27.9172 12.027 27.9631 12.0756 27.9952C12.1242 28.0274 12.1813 28.0443 12.2396 28.0438H26.6954C26.8517 28.0439 27.0017 27.9825 27.113 27.8727L29.9687 25.0391C30.0098 24.9981 30.0378 24.9458 30.0491 24.8888C30.0604 24.8319 30.0546 24.7728 30.0322 24.7192C30.0099 24.6656 29.9721 24.6199 29.9237 24.5878C29.8753 24.5557 29.8185 24.5387 29.7604 24.539V24.539ZM26.6954 19.2139H12.2396L12.1712 19.221C12.1201 19.2327 12.0732 19.2579 12.0352 19.2939C11.9972 19.33 11.9696 19.3756 11.9552 19.4259C11.9408 19.4763 11.9402 19.5296 11.9534 19.5802C11.9666 19.6309 11.9932 19.6771 12.0303 19.714L14.8881 22.5476L14.9585 22.608C15.0591 22.6784 15.1799 22.7187 15.3046 22.7187H29.7604L29.8289 22.7117C29.8799 22.6999 29.9269 22.6747 29.9649 22.6387C30.0028 22.6026 30.0305 22.5571 30.0449 22.5067C30.0592 22.4564 30.0599 22.4031 30.0467 22.3524C30.0334 22.3017 30.0069 22.2555 29.9697 22.2186L27.112 19.385L27.0415 19.3246C26.9406 19.2524 26.8195 19.2137 26.6954 19.2139V19.2139ZM29.7604 13.9563H15.3046C15.1484 13.9561 14.9983 14.0176 14.8871 14.1273L12.0313 16.9609C11.9902 17.002 11.9622 17.0543 11.9509 17.1112C11.9396 17.1682 11.9455 17.2272 11.9678 17.2808C11.9902 17.3344 12.0279 17.3802 12.0763 17.4123C12.1247 17.4444 12.1815 17.4613 12.2396 17.461H26.6954C26.8517 17.4612 27.0017 17.3997 27.113 17.29L29.9687 14.4574C30.0102 14.4164 30.0385 14.364 30.05 14.3069C30.0615 14.2498 30.0557 14.1905 30.0333 14.1367C30.011 14.0829 29.973 14.037 29.9244 14.0048C29.8758 13.9727 29.8187 13.9558 29.7604 13.9563V13.9563Z" fill="black"/>
</g>
</g>
<defs>
<linearGradient id="paint0_linear_7277_57892" x1="21" y1="0" x2="21" y2="61.4091" gradientUnits="userSpaceOnUse">
<stop stop-color="#08021E"/>
<stop offset="1" stop-color="#1F0777"/>
</linearGradient>
<linearGradient id="paint1_linear_7277_57892" x1="25.2875" y1="15.6625" x2="15.8375" y2="25.9875" gradientUnits="userSpaceOnUse">
<stop stop-color="#76F8A4"/>
<stop offset="0.540761" stop-color="#678FD3"/>
<stop offset="1" stop-color="#904BF7"/>
</linearGradient>
<clipPath id="clip0_7277_57892">
<rect width="42" height="42" fill="white"/>
</clipPath>
<clipPath id="clip1_7277_57892">
<rect width="32.2" height="32.2" fill="white" transform="translate(4.90002 4.90002)"/>
</clipPath>
</defs>
</svg>

<svg xmlns="http://www.w3.org/2000/svg" width="42" height="42" fill="none"><g clip-path="url(#a)"><mask id="c" width="42" height="42" x="0" y="0" maskUnits="userSpaceOnUse" style="mask-type:alpha"><circle cx="21" cy="21" r="21" fill="url(#b)" transform="matrix(-1 0 0 1 42 0)"/></mask><g mask="url(#c)"><circle cx="21" cy="21" r="21" fill="#34EDB3" transform="matrix(-1 0 0 1 42 0)"/><circle cx="18.2" cy="18.2" r="18.2" fill="#fff" transform="matrix(-1 0 0 1 39.2 2.8)"/></g><circle cx="16.1" cy="16.1" r="16.1" fill="#0B0B22" transform="matrix(-1 0 0 1 37.1 4.9)"/><g clip-path="url(#d)"><circle cx="21" cy="21" r="16.1" fill="url(#e)"/><path fill="#000" fill-rule="evenodd" d="M21 4.9c8.892 0 16.1 7.208 16.1 16.1 0 8.892-7.208 16.1-16.1 16.1-8.892 0-16.1-7.208-16.1-16.1 0-8.892 7.208-16.1 16.1-16.1Zm8.76 19.639H15.305a.593.593 0 0 0-.418.171l-2.856 2.833a.293.293 0 0 0 .209.5h14.455a.594.594 0 0 0 .418-.17l2.856-2.834a.293.293 0 0 0-.209-.5Zm-3.065-5.325H12.24l-.069.007a.293.293 0 0 0-.14.493l2.857 2.834.07.06c.101.07.222.11.347.11H29.76l.069-.006a.294.294 0 0 0 .218-.36.293.293 0 0 0-.077-.133l-2.858-2.834-.07-.06a.593.593 0 0 0-.347-.111Zm3.065-5.258H15.305a.594.594 0 0 0-.418.171l-2.856 2.834a.293.293 0 0 0 .209.5h14.455a.594.594 0 0 0 .418-.171l2.856-2.833a.293.293 0 0 0-.209-.5Z" clip-rule="evenodd"/></g></g><defs><linearGradient id="b" x1="21" x2="21" y1="0" y2="61.409" gradientUnits="userSpaceOnUse"><stop stop-color="#08021E"/><stop offset="1" stop-color="#1F0777"/></linearGradient><linearGradient id="e" x1="25.288" x2="15.838" y1="15.662" y2="25.988" gradientUnits="userSpaceOnUse"><stop stop-color="#76F8A4"/><stop offset=".541" stop-color="#678FD3"/><stop offset="1" stop-color="#904BF7"/></linearGradient><clipPath id="a"><path fill="#fff" d="M0 0h42v42H0z"/></clipPath><clipPath id="d"><path fill="#fff" d="M4.9 4.9h32.2v32.2H4.9z"/></clipPath></defs></svg>
